symbols/web/notifications_off/materialsymbolssharp/notifications_off_wght500grad200fill1_40px.svg

<svg xmlns="http://www.w3.org/2000/svg" height="40" width="40"><path d="m33.458 38.083-6.208-6.125H5.792v-3.75h3.583V15.917q0-.417.083-.896.084-.479.167-.771L1.833 6.375 4.25 3.958l31.667 31.709Zm-2.75-11.791L13 8.542q.958-.875 1.979-1.396 1.021-.521 2.188-.854V2.375h5.708v3.958q3.417.792 5.625 3.688t2.208 6.604ZM20.042 37.5q-1.542 0-2.604-1.062-1.063-1.063-1.063-2.605h7.333q0 1.542-1.083 2.605-1.083 1.062-2.583 1.062Z"/></svg>

<svg xmlns="http://www.w3.org/2000/svg" height="40" width="40"><path d="M33.458 38.083 27.25 31.958H5.792V28.208H9.375V15.917Q9.375 15.5 9.458 15.021Q9.542 14.542 9.625 14.25L1.833 6.375L4.25 3.958L35.917 35.667ZM30.708 26.292 13 8.542Q13.958 7.667 14.979 7.146Q16 6.625 17.167 6.292V2.375H22.875V6.333Q26.292 7.125 28.5 10.021Q30.708 12.917 30.708 16.625ZM20.042 37.5Q18.5 37.5 17.438 36.438Q16.375 35.375 16.375 33.833H23.708Q23.708 35.375 22.625 36.438Q21.542 37.5 20.042 37.5Z"/></svg>
